!!!COM: Beethoven
!!!OTL: 24 Variationen uber Venni Amore von V. Righini
!!!Variation: Variation 17 b
**function	**harm	**kern	**kern
*	*	*clefF4	*clefG2
*	*	*k[f#c#]	*k[f#c#]
*M2/4	*M2/4	*M2/4	*M2/4
*D:	*D:	*D:	*D:
=321	=321	=321	=321
*	*	*^	*
2D	2V7M9	[2AA	4r	8c# 8e
.	.	.	.	8r
.	.	.	(4G^	(4c# 4b
=322	=322	=322	=322	=322
2D	2Ic	2AA]	8F#)	8d) 8a
.	.	.	8r	8r
.	.	.	(4D	(4f# 4dd
=323	=323	=323	=323	=323
2D	2V7m9	[2AA	8E)	8g) 8cc#
.	.	.	8r	8r
.	.	.	(4G	(4cc# 4bb-
=324	=324	=324	=324	=324
2D	2Ic	2AA]	8F#)	8dd) 8aa
.	.	.	8r	8r
.	.	.	(4D	(4ff# 4ddd
=325	=325	=325	=325	=325
2D	2V7m9	[2AA	8E)	8gg) 8ccc#
.	.	.	8r	8r
*	*	*	*	*clefF4
.	.	.	(4G	(4B- 4c#
=326	=326	=326	=326	=326
2D	2Ic	8AA]	8F#)	8A) 8d
*	*	*v	*v	*
.	.	8r	8r
.	.	4r;	4r;
=327	=327	=327	=327
4D	4Cc	4AAA 4AA	(4D' 4F#' 4A'
4D	4V7	4AAA 4AA	4C#') 4E' 4G' 4A'
=328	=328	=328	=328
2T	2I	2DD; 2AA;	2D; 2F#; 2A;
*-	*-	*-	*-
